assets/icons/24px/outline/shield-1-24px.svg

<svg width="24" height="24" viewBox="0 0 24 24" fill="none" xmlns="http://www.w3.org/2000/svg">
<path d="M3 8V19C3 19.9428 3 20.4142 3.29289 20.7071C3.58579 21 4.05719 21 5 21H9M3 8V5C3 4.05719 3 3.58579 3.29289 3.29289C3.58579 3 4.05719 3 5 3H19C19.9428 3 20.4142 3 20.7071 3.29289C21 3.58579 21 4.05719 21 5V8M3 8H9M21 8V19C21 19.9428 21 20.4142 20.7071 20.7071C20.4142 21 19.9428 21 19 21H9M21 8H9M9 8V21" stroke="white" stroke-width="2"/>
</svg>

<svg width="24" height="24" fill="none" xmlns="http://www.w3.org/2000/svg"><path d="M3 8v11c0 .943 0 1.414.293 1.707C3.586 21 4.057 21 5 21h4M3 8V5c0-.943 0-1.414.293-1.707C3.586 3 4.057 3 5 3h14c.943 0 1.414 0 1.707.293C21 3.586 21 4.057 21 5v3M3 8h6m12 0v11c0 .943 0 1.414-.293 1.707C20.414 21 19.943 21 19 21H9M21 8H9m0 0v13" stroke="#fff" stroke-width="2"/></svg>
